X:1
T:Seeds of Love
M:4/4
L:1/8
K:G
D2|G3F G2A2|G6GB|d2d2c2(BA)|(G4D2)D2|B2BB (dB) cA|(GA) BG D2DD|C2CC D2D2|d6cA|B2cA G2F2|G6|]
w:I sowed the seeds of love And I sowed them in the_ Spring._I ga-thered them up_ in the morn_ing so soon While the small birds do sweet-ly sing, While the small birds do sweet-ly sing.
Contact us
suse.folkinfo.org
